icon-themes/breeze_svg/svx/res/marker-elli9x11-5.svg

<svg height="11" viewBox="0 0 9 11" width="9" xmlns="http://www.w3.org/2000/svg"><path d="m4.5 0c-2.485281 0-4.5 2.4624-4.5 5.5 0 3.0375 2.014719 5.5 4.5 5.5s4.5-2.4625 4.5-5.5c0-3.0376-2.014719-5.5-4.5-5.5zm0 1c1.932997 0 3.5 2.0147 3.5 4.5s-1.567003 4.5-3.5 4.5-3.5-2.0147-3.5-4.5 1.567003-4.5 3.5-4.5z" fill="#fff"/><ellipse cx="4.5" cy="5.50002" fill="#f47750" rx="3.5" ry="4.5"/></svg>

<svg viewBox="0 0 9 11" xmlns="http://www.w3.org/2000/svg">
  <path
     d="M 4.5 1 C 2.567003 1 1 3.01472 1 5.5 C 1 7.98528 2.567003 10 4.5 10 C 6.432997 10 8 7.98528 8 5.5 C 8 3.01472 6.432997 1 4.5 1 z "
     style="fill:#f47750;opacity:0.8" />
  <path
     d="M 4.5 0 C 2.014719 0 0 2.4624 0 5.5 C 0 8.5375 2.014719 11 4.5 11 C 6.985281 11 9 8.5375 9 5.5 C 9 2.4624 6.985281 0 4.5 0 z M 4.5 1 C 6.432997 1 8 3.0147 8 5.5 C 8 7.9853 6.432997 10 4.5 10 C 2.567003 10 1 7.9853 1 5.5 C 1 3.0147 2.567003 1 4.5 1 z "
     style="fill:#fff;opacity:0.8" />
</svg>
